X:7
T:The Hostess' Daughter - Masters
C:Taken down from J. Masters by H.Fl.S.
%%VWML:SBG-1-1-328-0
F:http://www.vwml.org/record/SBG/1/1/328
Z:Original Sibleius Transcription by Martin and Shan Graebe
L:1/8
M:3/4
I:linebreak $
K:A
A A c | e3 d c B | A3 B c A | (F2 G) B A G | A2 z A A e | e3 d c B |$ A2 z B c .A | (F2 G) B A G | 
A2 z c d e | f3 B c d | e3 f e c |$ (A c2) e d c | B3 A c e | e3 d c B | e3 f e c | (E A2) c B G | 
A4 z  |] 



